app/component-library/components/Icons/Icon/assets/security-slash.svg

<svg width="24" height="24" viewBox="0 0 24 24" fill="none" xmlns="http://www.w3.org/2000/svg">
<path d="M19.6406 4.63984L6.11057 18.1698L5.01057 17.3498C4.36057 16.8598 3.83057 15.7998 3.83057 14.9798V6.88984C3.83057 5.75984 4.69057 4.51984 5.74057 4.11984L11.2406 2.05984C11.8106 1.84984 12.7506 1.84984 13.3206 2.05984L18.8206 4.11984C19.1106 4.22984 19.3906 4.40984 19.6406 4.63984Z" fill="currentColor"/>
<path d="M20.7308 14.9798C20.7308 15.7998 20.2008 16.8598 19.5508 17.3498L14.0508 21.4598C13.0708 22.1798 11.4907 22.1798 10.5107 21.4598L8.75075 20.1498C8.26075 19.7898 8.21075 19.0698 8.64075 18.6398L19.0208 8.25983C19.6508 7.62983 20.7308 8.07983 20.7308 8.96983V14.9798Z" fill="currentColor"/>
<path d="M22.0506 2.22988C21.7506 1.92988 21.2606 1.92988 20.9606 2.22988L2.51064 20.6899C2.21064 20.9899 2.21064 21.4799 2.51064 21.7799C2.66064 21.9199 2.85064 21.9999 3.05064 21.9999C3.25064 21.9999 3.44064 21.9199 3.59064 21.7699L22.0506 3.30988C22.3606 3.00988 22.3606 2.52988 22.0506 2.22988Z" fill="currentColor"/>
</svg>

<svg xmlns="http://www.w3.org/2000/svg" width="24" height="24" viewBox="0 0 24 24" fill="none"><path fill="currentColor" d="M19.64 4.64 6.11 18.17l-1.1-.82c-.65-.49-1.18-1.55-1.18-2.37V6.89c0-1.13.86-2.37 1.91-2.77l5.5-2.06c.57-.21 1.51-.21 2.08 0l5.5 2.06c.29.11.57.29.82.52ZM20.73 14.98c0 .82-.53 1.88-1.18 2.37l-5.5 4.11c-.98.72-2.56.72-3.54 0l-1.76-1.31c-.49-.36-.54-1.08-.11-1.51L19.02 8.26c.63-.63 1.71-.18 1.71.71v6.01Z"/><path fill="currentColor" d="M22.05 2.23c-.3-.3-.79-.3-1.09 0L2.51 20.69c-.3.3-.3.79 0 1.09a.758.758 0 0 0 1.08-.01L22.05 3.31c.31-.3.31-.78 0-1.08Z"/></svg>
